OBS Studio/Fluent Dark Grey/arrows/expand.svg

<svg width="12" height="12" fill="none" viewBox="0 0 12 12" xmlns="http://www.w3.org/2000/svg"><path d="m4.6464 2.1464c-0.19527 0.19526-0.19527 0.51184 0 0.7071l3.1464 3.1464-3.1464 3.1464c-0.19527 0.19526-0.19527 0.51184 0 0.7071 0.19526 0.19525 0.51184 0.19525 0.7071 0l3.5-3.5c0.19527-0.19526 0.19527-0.51184 0-0.7071l-3.5-3.5c-0.19526-0.19527-0.51184-0.19527-0.7071 0z" fill="#fff"/></svg>

<svg width="12" height="12" viewBox="0 0 12 12" fill="none" xmlns="http://www.w3.org/2000/svg">
<path d="M4.64645 2.14645C4.45118 2.34171 4.45118 2.65829 4.64645 2.85355L7.79289 6L4.64645 9.14645C4.45118 9.34171 4.45118 9.65829 4.64645 9.85355C4.84171 10.0488 5.15829 10.0488 5.35355 9.85355L8.85355 6.35355C9.04882 6.15829 9.04882 5.84171 8.85355 5.64645L5.35355 2.14645C5.15829 1.95118 4.84171 1.95118 4.64645 2.14645Z" fill="white"/>
</svg>
